X: 27820
T: Morven's March
R: three-two
M: 3/2
K: Dmajor
A2Bc|:d4 c3d cA3|F4F2E2 FGA2|B4 B3A Bd3|c4c2A2 A2Bc|
d4 c3d cA3|F4F2F2 E2D2|B,D3 F4 E3D|1 D4D4 A2Bc:|2 D4D2E2 FGA2||
|:B4 B3A Bd3|c4c2A2 A2Bc|d4 fa3 ed3|B4B2A2 A2Bc|
d3e c3A GA3|E4E2F2 E2D2|B,D3 F4 E3D|1 D4D2E2 FGA2:|2 D4D4 A2Bc||

